Font-Source/Egyptian2/svg-ex/13ABE.svg

<?xml version="1.0" encoding="UTF-8" standalone="no"?>
<svg
   width="1131"
   height="700"
   version="1.1"
   id="svg1"
   sodipodi:docname="13ABE.svg"
   inkscape:version="1.4.2 (f4327f4, 2025-05-13)"
   xmlns:inkscape="http://www.inkscape.org/namespaces/inkscape"
   xmlns:sodipodi="http://sodipodi.sourceforge.net/DTD/sodipodi-0.dtd"
   xmlns="http://www.w3.org/2000/svg"
   xmlns:svg="http://www.w3.org/2000/svg">
  <defs
     id="defs1" />
  <sodipodi:namedview
     id="namedview1"
     pagecolor="#ffffff"
     bordercolor="#666666"
     borderopacity="1.0"
     inkscape:showpageshadow="2"
     inkscape:pageopacity="0.0"
     inkscape:pagecheckerboard="0"
     inkscape:deskcolor="#d1d1d1"
     inkscape:zoom="1.366698"
     inkscape:cx="814.00574"
     inkscape:cy="677.17961"
     inkscape:window-width="1680"
     inkscape:window-height="998"
     inkscape:window-x="-8"
     inkscape:window-y="-8"
     inkscape:window-maximized="1"
     inkscape:current-layer="svg1" />
  <path
     id="path1"
     style="fill:#000000;stroke:none;stroke-width:1"
     d="m 772.7207,36.794922 c -34.10421,25.578151 -121.79903,38.672233 -263.08789,39.28125 -80.38853,0 -141.28894,17.660204 -182.70117,52.982418 -41.41227,35.32221 -92.87342,72.16792 -154.38281,110.53516 -66.3814,11.57106 -103.530224,29.23127 -111.447268,52.98242 -7.917042,23.75116 -17.358243,40.19503 -28.320312,49.33008 -35.9312327,18.27012 -42.3257357,40.80346 -19.183594,67.59961 9.744065,19.4881 21.316767,33.79851 34.714844,42.93359 15.834117,25.57815 33.799367,28.92794 53.89648,10.04883 16.4431,-1.82699 35.93172,-6.09002 58.46485,-12.78906 20.70613,82.21549 66.38096,144.94235 137.02539,188.18164 H 130.52734 C 101.90416,622.65576 79.370837,615.04492 62.927734,615.04492 25.169511,622.35294 6.1384934,638.18673 5.8339844,662.54688 5.5294755,686.90693 9.9450316,698.78272 19.080078,698.17383 h 31.972656 c 14.007095,-10.35308 23.751419,-10.04996 29.232422,0.91211 L 446.59961,700 c 0,-23.14214 -10.9606,-53.28826 -32.88477,-90.4375 33.54431,24.71684 89.12329,35.07568 166.74024,31.07422 -9.69457,6.09947 -14.72756,15.38164 -15.09961,27.84766 -0.60899,20.40161 3.65401,30.60156 12.78906,30.60156 h 30.14649 c 13.39805,-8.52615 22.53224,-8.22099 27.40429,0.91406 h 363.57617 c 61.50932,-10.35308 102.92122,-40.804 124.23632,-87.69727 14.0071,-27.40517 8.3733,-48.56769 -16.9004,-63.48828 -25.2737,-14.92059 -46.1311,-10.19999 -62.5742,14.16016 -12.7891,24.36015 -26.7964,44.4569 -42.0215,60.29101 C 932.58531,480.14975 857.22194,409.0494 775.91992,409.96289 c -81.30203,0.91349 -165.34588,5.02397 -252.1289,12.33203 -86.78303,7.30802 -141.28893,-4.11212 -163.51758,-34.25781 -22.22865,-30.14566 -41.25966,-52.82959 -57.09375,-68.05469 38.97623,14.61609 92.56891,21.92383 160.77734,21.92383 68.81741,0 148.29124,-17.20456 238.42383,-51.61328 90.13256,-34.40872 135.19922,-53.13664 135.19922,-56.18164 0,-19.48813 -4.87118,-35.93005 -14.61524,-49.32813 -59.07338,17.66111 -133.37294,20.09769 -222.89648,7.3086 C 708.47101,166.51365 776.68115,126.6232 804.69531,72.421875 806.52236,47.452711 795.86287,35.576918 772.7207,36.794922 Z m -3.65234,26.492187 c 4.87205,1.218005 8.83001,4.262718 11.875,9.134766 -15.83411,28.623175 -57.70353,52.677925 -125.60742,72.166015 -67.90394,19.48813 -124.69387,29.0799 -170.36914,28.77539 -45.6753,-0.30451 -117.53634,22.38134 -215.58594,68.05664 -5.48103,12.18007 -2.43633,20.09794 9.13476,23.75196 82.21548,-43.84825 148.29217,-65.92596 198.23047,-66.23047 49.93833,-0.30451 91.04514,3.35032 123.32227,10.96289 32.27719,7.61253 66.07818,11.41797 101.40039,11.41797 35.32222,0 72.16596,-5.47934 110.5332,-16.44141 l 1.82813,6.39453 c -37.14924,11.57106 -73.99497,18.42121 -110.53516,20.55273 -36.54025,2.1315 -74.14661,-1.3708 -112.81836,-10.50585 -38.67172,-9.13508 -74.14465,-13.70118 -106.42187,-13.70118 -32.27719,0 -69.42797,8.37349 -111.44922,25.1211 -42.02125,16.74761 -71.2522,29.68917 -87.69531,38.82422 l 8.2207,13.70117 c 16.44313,-10.35308 44.30523,-23.44521 83.58594,-39.2793 39.28077,-15.83412 74.75562,-23.90451 106.42382,-24.20898 31.66818,-0.30451 67.29561,3.95852 106.88086,12.78906 39.58527,8.83057 77.79981,12.18036 114.64454,10.04883 36.8447,-2.1315 73.53595,-11.41822 110.07617,-27.86133 l 2.74219,7.30859 c -171.73909,61.50938 -285.92904,92.26367 -342.56641,92.26367 -56.63733,10e-6 -97.89664,-2.58909 -123.7793,-7.76562 -25.88266,-5.17652 -58.61592,-14.76829 -98.20117,-28.77539 -14.00709,2.43601 -16.74872,10.0488 -8.22266,22.83789 45.06628,43.84828 79.32289,82.67296 102.76954,116.47266 23.44664,33.7997 91.04663,46.1311 202.79882,36.99609 111.75219,-9.13505 175.23975,-13.70313 190.46485,-13.70313 65.16337,-4.26303 116.62456,19.33607 154.38281,70.79688 37.75825,51.46084 62.11804,97.28819 73.08008,137.48242 h 34.71486 c 28.6232,-21.31515 48.4149,-45.06481 59.3769,-71.25195 8.5261,-12.18007 19.3361,-15.07425 32.4297,-8.67969 13.0935,6.39449 15.6826,17.8147 7.7656,34.25781 -20.0972,34.71323 -54.5063,60.59606 -103.22652,73.99414 l -351.69921,-0.91406 c -8.52603,-7.91714 -17.81472,-10.35368 -27.86329,-7.30859 -10.04857,3.04541 -18.42206,4.41626 -25.12109,4.11133 -6.69904,-0.30447 -10.04883,-2.89361 -10.04883,-7.76563 0,-6.09005 7.61279,-11.11374 22.83789,-15.07226 15.2251,-3.95852 33.80048,0.15196 55.72461,12.33203 h 129.7168 c 7.91704,0 17.66133,-2.1315 29.23242,-6.39453 -46.89327,-66.99041 -70.33984,-110.99021 -70.33984,-130.17383 0,-19.18362 6.69957,-30.29872 20.09765,-33.34375 13.39808,-3.04503 27.70853,1.21797 42.9336,12.78906 6.09005,-4.87202 9.13672,-9.13502 9.13672,-12.78906 -21.31512,-19.48813 -43.69789,-26.18775 -67.14453,-20.09766 -23.44666,6.09002 -35.62558,21.62071 -36.53907,46.58984 -0.91353,24.96916 5.6335,45.37099 19.64063,61.20508 -51.15633,21.9243 -118.14813,33.18994 -200.97266,33.79883 -59.68236,0 -119.36451,-23.44651 -179.04687,-70.33984 l -12.78907,19.18359 c 45.06627,56.63737 67.59961,94.09124 67.59961,112.36133 H 91.246094 c -7.917043,-11.57105 -17.203768,-14.76833 -27.861328,-9.5918 -10.657591,5.17693 -19.488672,7.61352 -26.492188,7.3086 -7.003547,-0.30447 -10.505859,-3.80682 -10.505859,-10.50586 0,-9.13508 8.07039,-15.83463 24.208984,-20.09766 16.138595,-4.26299 30.601534,-1.82646 43.390625,7.30859 12.789062,9.13505 34.714232,13.09301 65.773442,11.875 h 192.75 l 1.82617,-18.26953 C 255.0683,583.07108 199.34413,510.29488 187.16406,426.86133 c 6.09005,-17.05209 10.96318,-43.84845 14.61719,-80.38867 h -8.22266 c -10.35305,51.76532 -31.51557,82.06399 -63.48828,90.89453 -31.972675,8.83057 -52.830151,8.67802 -62.574216,-0.45703 4.872017,-4.26303 14.158742,-9.13421 27.861328,-14.61524 13.702588,-5.48104 19.944568,-10.35416 18.726558,-14.61719 -1.218,-4.26303 -11.57046,-0.45564 -31.058589,11.41993 -19.48813,11.87559 -36.845246,2.89199 -52.070313,-26.94922 17.05209,-8.52603 19.488667,-20.09681 7.308594,-34.71289 22.533156,-12.18007 36.082883,-27.86127 40.65039,-47.04493 C 83.481601,291.20703 115.6067,275.8289 175.28906,264.25781 236.18945,227.71759 289.62961,190.8719 335.60938,153.72266 381.58916,116.57342 456.9525,98.305048 561.70117,98.914062 666.44978,99.523049 735.57313,87.647253 769.06836,63.287109 Z M 174.375,289.83594 l -15.5293,1.82617 c -42.63027,-2.43604 -66.381886,16.13937 -71.253903,55.72461 38.976233,6.09005 68.817303,-12.18028 89.523433,-54.81055 z m -36.08398,14.61523 c 4.26303,-0.3045 8.67855,5.5e-4 13.24609,0.91406 -3.04503,7.91704 -8.22124,14.31155 -15.5293,19.1836 1.21801,-7.91707 -2.13179,-13.70146 -10.04883,-17.35547 3.95852,-1.52252 8.06901,-2.43769 12.33204,-2.74219 z M 112.25781,314.5 c -1.82703,9.13507 0.91265,15.22645 8.22071,18.27148 l -19.1836,3.65235 c 1.21801,-8.52606 4.87284,-15.83378 10.96289,-21.92383 z m 639.45313,292.32227 24.66406,36.54101 h -65.77148 c -19.86471,-4.5635 -37.8358,-7.79609 -53.91407,-9.69726 44.83207,-6.11265 76.50543,-15.0608 95.02149,-26.84375 z"
     sodipodi:nodetypes="ccscsccccccccsccccccssccccsccssscsssccccccssccsssccssssccssssccssccsscscccscccccsscscssccssccccccccsssccccccscsssccscssccccccscccsccccccccc" />
</svg>

<?xml version="1.0" encoding="UTF-8" standalone="no"?>
<svg
   width="1131"
   height="700"
   version="1.1"
   id="svg1"
   sodipodi:docname="13ABE.svg"
   inkscape:version="1.4.2 (f4327f4, 2025-05-13)"
   xmlns:inkscape="http://www.inkscape.org/namespaces/inkscape"
   xmlns:sodipodi="http://sodipodi.sourceforge.net/DTD/sodipodi-0.dtd"
   xmlns="http://www.w3.org/2000/svg"
   xmlns:svg="http://www.w3.org/2000/svg">
  <defs
     id="defs1" />
  <sodipodi:namedview
     id="namedview1"
     pagecolor="#ffffff"
     bordercolor="#666666"
     borderopacity="1.0"
     inkscape:showpageshadow="2"
     inkscape:pageopacity="0.0"
     inkscape:pagecheckerboard="0"
     inkscape:deskcolor="#d1d1d1"
     inkscape:zoom="0.68334899"
     inkscape:cx="706.08138"
     inkscape:cy="466.08688"
     inkscape:window-width="1680"
     inkscape:window-height="998"
     inkscape:window-x="-8"
     inkscape:window-y="-8"
     inkscape:window-maximized="1"
     inkscape:current-layer="svg1" />
  <path
     id="path1"
     style="fill:#000000;stroke:none;stroke-width:1"
     d="M 772.7207 36.794922 C 738.61649 62.373073 650.92167 75.467155 509.63281 76.076172 C 429.24428 76.076172 368.34387 93.736376 326.93164 129.05859 C 285.51937 164.3808 234.05822 201.22651 172.54883 239.59375 C 106.16743 251.16481 69.018606 268.82502 61.101562 292.57617 C 53.18452 316.32733 43.743319 332.7712 32.78125 341.90625 C -3.1499827 360.17637 -9.5444857 382.70971 13.597656 409.50586 C 23.341721 428.99396 34.914423 443.30437 48.3125 452.43945 C 64.146617 478.0176 82.111867 481.36739 102.20898 462.48828 C 118.65208 460.66129 138.1407 456.39826 160.67383 449.69922 C 181.37996 531.91471 227.05479 594.64157 297.69922 637.88086 L 130.52734 637.88086 C 101.90416 622.65576 79.370837 615.04492 62.927734 615.04492 C 25.169511 622.35294 6.1384934 638.18673 5.8339844 662.54688 C 5.5294755 686.90693 9.9450316 698.78272 19.080078 698.17383 L 51.052734 698.17383 C 65.059829 687.82075 74.804153 688.12387 80.285156 699.08594 L 446.59961 700 C 446.59961 676.85786 435.63901 646.71174 413.71484 609.5625 C 447.25915 634.27934 502.83813 644.63818 580.45508 640.63672 C 570.76051 646.73619 565.72752 656.01836 565.35547 668.48438 C 564.74648 688.88599 569.00948 699.08594 578.14453 699.08594 L 608.29102 699.08594 C 621.68907 690.55979 630.82326 690.86495 635.69531 700 L 999.27148 699.08594 C 1060.7808 688.73286 1102.1927 659.196 1123.5078 612.30273 C 1137.5149 584.89756 1131.8811 563.73504 1106.6074 548.81445 C 1081.3337 533.89386 1060.4763 538.61446 1044.0332 562.97461 C 1031.2441 587.33476 1017.2368 607.43151 1002.0117 623.26562 C 932.58531 480.14975 857.22194 409.0494 775.91992 409.96289 C 694.61789 410.87638 610.57404 414.98686 523.79102 422.29492 C 437.00799 429.60294 382.50209 418.1828 360.27344 388.03711 C 338.04479 357.89145 319.01378 335.20752 303.17969 319.98242 C 342.15592 334.59851 395.7486 341.90625 463.95703 341.90625 C 532.77444 341.90625 612.24827 324.70169 702.38086 290.29297 C 792.51342 255.88425 837.58008 237.15633 837.58008 234.11133 C 837.58008 214.6232 832.7089 198.18128 822.96484 184.7832 C 763.89146 202.44431 689.5919 204.88089 600.06836 192.0918 C 708.47101 166.51365 776.68115 126.6232 804.69531 72.421875 C 806.52236 47.452711 795.86287 35.576918 772.7207 36.794922 z M 769.06836 63.287109 C 773.94041 64.505114 777.89837 67.549827 780.94336 72.421875 C 765.10925 101.04505 723.23983 125.0998 655.33594 144.58789 C 587.432 164.07602 530.64207 173.66779 484.9668 173.36328 C 439.2915 173.05877 367.43046 195.74462 269.38086 241.41992 C 263.89983 253.59999 266.94453 261.51786 278.51562 265.17188 C 360.7311 221.32363 426.80779 199.24592 476.74609 198.94141 C 526.68442 198.6369 567.79123 202.29173 600.06836 209.9043 C 632.34555 217.51683 666.14654 221.32227 701.46875 221.32227 C 736.79097 221.32227 773.63471 215.84293 812.00195 204.88086 L 813.83008 211.27539 C 776.68084 222.84645 739.83511 229.6966 703.29492 231.82812 C 666.75467 233.95962 629.14831 230.45732 590.47656 221.32227 C 551.80484 212.18719 516.33191 207.62109 484.05469 207.62109 C 451.7775 207.62109 414.62672 215.99458 372.60547 232.74219 C 330.58422 249.4898 301.35327 262.43136 284.91016 271.56641 L 293.13086 285.26758 C 309.57399 274.9145 337.43609 261.82237 376.7168 245.98828 C 415.99757 230.15416 451.47242 222.08377 483.14062 221.7793 C 514.8088 221.47479 550.43623 225.73782 590.02148 234.56836 C 629.60675 243.39893 667.82129 246.74872 704.66602 244.61719 C 741.51072 242.48569 778.20197 233.19897 814.74219 216.75586 L 817.48438 224.06445 C 645.74529 285.57383 531.55534 316.32812 474.91797 316.32812 C 418.28064 316.32813 377.02133 313.73903 351.13867 308.5625 C 325.25601 303.38598 292.52275 293.79421 252.9375 279.78711 C 238.93041 282.22312 236.18878 289.83591 244.71484 302.625 C 289.78112 346.47328 324.03773 385.29796 347.48438 419.09766 C 370.93102 452.89736 438.53101 465.22876 550.2832 456.09375 C 662.03539 446.9587 725.52295 442.39062 740.74805 442.39062 C 805.91142 438.12759 857.37261 461.72669 895.13086 513.1875 C 932.88911 564.64834 957.2489 610.47569 968.21094 650.66992 L 1002.9258 650.66992 C 1031.549 629.35477 1051.3407 605.60511 1062.3027 579.41797 C 1070.8288 567.2379 1081.6388 564.34372 1094.7324 570.73828 C 1107.8259 577.13277 1110.415 588.55298 1102.498 604.99609 C 1082.4008 639.70932 1047.9917 664.67809 999.27148 678.07617 L 647.57227 678.07617 C 639.04624 670.15903 629.75755 667.72249 619.70898 670.76758 C 609.66041 673.81299 601.28692 675.18384 594.58789 674.87891 C 587.88885 674.57444 584.53906 671.9853 584.53906 667.11328 C 584.53906 661.02323 592.15185 655.99954 607.37695 652.04102 C 622.60205 648.0825 641.17743 652.19298 663.10156 664.37305 L 792.81836 664.37305 C 800.7354 664.37305 810.47969 662.24155 822.05078 657.97852 C 775.15751 590.98811 751.71094 546.98831 751.71094 527.80469 C 751.71094 508.62107 758.41051 497.50597 771.80859 494.46094 C 785.20667 491.41591 799.51712 495.67891 814.74219 507.25 C 820.83224 502.37798 823.87891 498.11498 823.87891 494.46094 C 802.56379 474.97281 780.18102 468.27319 756.73438 474.36328 C 733.28772 480.4533 721.1088 495.98399 720.19531 520.95312 C 719.28178 545.92228 725.82881 566.32411 739.83594 582.1582 C 688.67961 604.0825 621.68781 615.34814 538.86328 615.95703 C 479.18092 615.95703 419.49877 592.51052 359.81641 545.61719 L 347.02734 564.80078 C 392.09361 621.43815 414.62695 658.89202 414.62695 677.16211 L 91.246094 677.16211 C 83.329051 665.59106 74.042326 662.39378 63.384766 667.57031 C 52.727175 672.74724 43.896094 675.18383 36.892578 674.87891 C 29.889031 674.57444 26.386719 671.07209 26.386719 664.37305 C 26.386719 655.23797 34.457109 648.53842 50.595703 644.27539 C 66.734298 640.0124 81.197237 642.44893 93.986328 651.58398 C 106.77539 660.71903 128.70056 664.67699 159.75977 663.45898 L 352.50977 663.45898 L 354.33594 645.18945 C 255.0683 583.07108 199.34413 510.29488 187.16406 426.86133 C 193.25411 409.80924 198.12724 383.01288 201.78125 346.47266 L 193.55859 346.47266 C 183.20554 398.23798 162.04302 428.53665 130.07031 437.36719 C 98.097635 446.19776 77.240159 446.04521 67.496094 436.91016 C 72.368111 432.64713 81.654836 427.77595 95.357422 422.29492 C 109.06001 416.81388 115.30199 411.94076 114.08398 407.67773 C 112.86598 403.4147 102.51352 407.22209 83.025391 419.09766 C 63.537261 430.97325 46.180145 421.98965 30.955078 392.14844 C 48.007168 383.62241 50.443745 372.05163 38.263672 357.43555 C 60.796828 345.25548 74.346555 329.57428 78.914062 310.39062 C 83.481601 291.20703 115.6067 275.8289 175.28906 264.25781 C 236.18945 227.71759 289.62961 190.8719 335.60938 153.72266 C 381.58916 116.57342 456.9525 98.305048 561.70117 98.914062 C 666.44978 99.523049 735.57313 87.647253 769.06836 63.287109 z M 174.375 289.83594 L 158.8457 291.66211 C 116.21543 289.22607 92.463814 307.80148 87.591797 347.38672 C 126.56803 353.47677 156.4091 335.20644 177.11523 292.57617 L 174.375 289.83594 z M 138.29102 304.45117 C 142.55405 304.14667 146.96957 304.45172 151.53711 305.36523 C 148.49208 313.28227 143.31587 319.67678 136.00781 324.54883 C 137.22582 316.63176 133.87602 310.84737 125.95898 307.19336 C 129.9175 305.67084 134.02799 304.75567 138.29102 304.45117 z M 112.25781 314.5 C 110.43078 323.63507 113.17046 329.72645 120.47852 332.77148 L 101.29492 336.42383 C 102.51293 327.89777 106.16776 320.59005 112.25781 314.5 z M 751.71094 606.82227 L 776.375 643.36328 L 710.60352 643.36328 C 690.73881 638.79978 672.76772 635.56719 656.68945 633.66602 C 701.52152 627.55337 733.19488 618.60522 751.71094 606.82227 z " />
</svg>
